assets/images/icon-hidden.svg

<svg fill="none" height="14" viewBox="0 0 16 14" width="16" xmlns="http://www.w3.org/2000/svg"><g fill="#c2c6cd"><path d="m16 7.00001c-1.1672-3.49324-4.3034-6.000018-7.99999-6.000018-1.32325 0-2.57124.326608-3.68525.900678l-1.90071-1.90067-1.41405 1.41405 12.5859 12.58595 1.4141-1.4141-1.6294-1.6293c1.1865-1.03069 2.1068-2.39261 2.6293-3.95665zm-7.99999-4c2.20919 0 3.99999 1.79084 3.99999 4 0 .74169-.2104 1.42882-.565 2.02093l-1.50344-1.50343c.04457-.16486.06843-.33825.06843-.51753 0-1.10461-.89543-1.99999-1.99998-1.99999-.1787 0-.35016.02697-.51465.07129l-1.49403-1.49403c.59124-.35386 1.26813-.57724 2.00868-.57724z"/><path d="m8 10.9999c-2.20916 0-4-1.79091-4-4.00004 0-.35597.06135-.69477.14862-1.02324l-2.23541-2.23541c-.84032.9202-1.501352 2.02599-1.91321 3.25865 1.16717 3.49324 4.30342 5.99994 8 5.99994.94581 0 1.854-.1662 2.7029-.4689l-1.67963-1.6797c-.3285.0873-.66734.1487-1.02327.1487z"/></g></svg>

<svg width="16" height="14" viewBox="0 0 16 14" fill="none" xmlns="http://www.w3.org/2000/svg">
<path d="M16 7.00001C14.8328 3.50677 11.6966 0.999992 8.00001 0.999992C6.67676 0.999992 5.42877 1.3266 4.31476 1.90067L2.41405 0L1 1.41405L13.5859 14L15 12.5859L13.3706 10.9566C14.5571 9.92591 15.4774 8.56399 15.9999 6.99995L16 7.00001ZM8.00001 3.00001C10.2092 3.00001 12 4.79085 12 7.00001C12 7.7417 11.7896 8.42883 11.435 9.02094L9.93156 7.51751C9.97613 7.35265 9.99999 7.17926 9.99999 6.99998C9.99999 5.89537 9.10456 4.99999 8.00001 4.99999C7.82131 4.99999 7.64985 5.02696 7.48536 5.07128L5.99133 3.57725C6.58257 3.22339 7.25946 3.00001 8.00001 3.00001V3.00001Z" fill="#C2C6CD"/>
<path d="M8 10.9999C5.79084 10.9999 4 9.20899 4 6.99986C4 6.64389 4.06135 6.30509 4.14862 5.97662L1.91321 3.74121C1.07289 4.66141 0.411858 5.7672 0 6.99986C1.16717 10.4931 4.30342 12.9998 8 12.9998C8.94581 12.9998 9.854 12.8336 10.7029 12.5309L9.02327 10.8512C8.69477 10.9385 8.35593 10.9999 8 10.9999V10.9999Z" fill="#C2C6CD"/>
</svg>
